Newaita-dark/actions/24/mail-tagged.svg

<?xml version="1.0" encoding="UTF-8"?>
<svg xmlns="http://www.w3.org/2000/svg" xmlns:xlink="http://www.w3.org/1999/xlink" width="24pt" height="24pt" viewBox="0 0 24 24" version="1.1">
<g id="surface1">
<path style=" stroke:none;fill-rule:nonzero;fill:rgb(74.117649%,74.117649%,74.117649%);fill-opacity:1;" d="M 2.976562 3.164062 C 1.878906 3.164062 0.992188 4.050781 0.992188 5.148438 L 0.992188 19.535156 C 0.992188 20.636719 1.878906 21.523438 2.976562 21.523438 L 18.109375 21.523438 L 16.621094 20.03125 L 3.472656 20.03125 C 2.921875 20.03125 2.480469 19.589844 2.480469 19.039062 L 2.480469 5.800781 L 11.335938 13.726562 C 11.660156 14.015625 12.152344 14.015625 12.480469 13.726562 L 21.335938 5.800781 L 21.335938 15.320312 L 22.824219 16.808594 L 22.824219 5.148438 C 22.824219 4.050781 21.9375 3.164062 20.839844 3.164062 Z M 3.765625 4.652344 L 20.050781 4.652344 L 11.90625 11.9375 Z M 3.765625 4.652344 "/>
<path style=" stroke:none;fill-rule:nonzero;fill:rgb(92.54902%,25.098041%,47.843137%);fill-opacity:1;" d="M 15.21875 13.917969 C 14.246094 14.886719 14.246094 16.453125 15.21875 17.425781 L 19.078125 21.285156 C 19.464844 21.671875 20.089844 21.671875 20.480469 21.285156 L 21.53125 20.230469 L 22.585938 19.179688 C 22.972656 18.789062 22.972656 18.164062 22.585938 17.777344 L 18.726562 13.917969 C 17.753906 12.945312 16.1875 12.945312 15.21875 13.917969 Z M 16.621094 15.320312 C 16.816406 15.125 17.105469 15.101562 17.273438 15.269531 L 17.371094 15.371094 C 17.539062 15.535156 17.515625 15.828125 17.324219 16.019531 C 17.128906 16.214844 16.835938 16.238281 16.671875 16.070312 L 16.570312 15.972656 C 16.402344 15.804688 16.425781 15.515625 16.621094 15.320312 Z M 16.621094 15.320312 "/>
</g>
</svg>

<svg xmlns="http://www.w3.org/2000/svg" width="32" height="32" viewBox="0 0 24 24"><path d="M2.977 3.164A1.982 1.982 0 0 0 .992 5.148v14.387c0 1.102.887 1.988 1.985 1.988h15.132l-1.488-1.492H3.473a.989.989 0 0 1-.993-.992V5.801l8.856 7.926c.324.289.816.289 1.144 0L21.336 5.8v9.52l1.488 1.488V5.149a1.982 1.982 0 0 0-1.984-1.985zm.789 1.488H20.05l-8.145 7.285zm0 0" fill="#bdbdbd"/><path d="M15.219 13.918a2.473 2.473 0 0 0 0 3.508l3.86 3.86a.993.993 0 0 0 1.401 0l1.051-1.056 1.055-1.05a.993.993 0 0 0 0-1.403l-3.86-3.859a2.473 2.473 0 0 0-3.507 0zm1.402 1.402c.195-.195.484-.218.652-.05l.098.101c.168.164.145.457-.047.649-.195.195-.488.218-.652.05l-.102-.097c-.168-.168-.144-.457.051-.653zm0 0" fill="#ec407a"/></svg>
